evrofasad/img/icons/cloud.svg

<svg width="50" height="49" viewBox="0 0 50 49" fill="none" xmlns="http://www.w3.org/2000/svg">
<path d="M8.18713 35.0008C8.39436 35.0008 8.59309 35.0827 8.73963 35.2286C8.88616 35.3744 8.96848 35.5723 8.96848 35.7785V37.5518L10.5343 36.6589C10.7138 36.5624 10.9241 36.5395 11.1203 36.5953C11.3165 36.651 11.483 36.7809 11.5842 36.9573C11.6854 37.1336 11.7133 37.3423 11.662 37.5389C11.6106 37.7354 11.4841 37.9042 11.3094 38.0091L9.76233 38.8895L11.3094 39.7699C11.4841 39.8748 11.6106 40.0435 11.662 40.2401C11.7133 40.4366 11.6854 40.6453 11.5842 40.8217C11.483 40.998 11.3165 41.1279 11.1203 41.1837C10.9241 41.2394 10.7138 41.2166 10.5343 41.12L8.96848 40.2303V42.0004C8.96848 42.2067 8.88616 42.4045 8.73963 42.5503C8.59309 42.6962 8.39436 42.7781 8.18713 42.7781C7.9799 42.7781 7.78116 42.6962 7.63463 42.5503C7.4881 42.4045 7.40578 42.2067 7.40578 42.0004V40.2272L5.83996 41.12C5.66047 41.2166 5.45016 41.2394 5.25397 41.1837C5.05779 41.1279 4.89129 40.998 4.79006 40.8217C4.68884 40.6453 4.66092 40.4366 4.71227 40.2401C4.76362 40.0435 4.89016 39.8748 5.06486 39.7699L6.61193 38.8895L5.06486 38.0091C4.89016 37.9042 4.76362 37.7354 4.71227 37.5389C4.66092 37.3423 4.68884 37.1336 4.79006 36.9573C4.89129 36.7809 5.05779 36.651 5.25397 36.5953C5.45016 36.5395 5.66047 36.5624 5.83996 36.6589L7.40578 37.5487V35.7785C7.40578 35.5723 7.4881 35.3744 7.63463 35.2286C7.78116 35.0827 7.9799 35.0008 8.18713 35.0008ZM16.782 41.2227C16.9892 41.2227 17.1879 41.3046 17.3345 41.4505C17.481 41.5963 17.5633 41.7941 17.5633 42.0004V43.7736L19.126 42.8808C19.3059 42.7781 19.5194 42.7507 19.7195 42.8046C19.9197 42.8586 20.0901 42.9895 20.1933 43.1686C20.2965 43.3476 20.324 43.5601 20.2698 43.7593C20.2156 43.9586 20.0841 44.1282 19.9042 44.2309L18.3572 45.1113L19.9042 45.9917C20.0789 46.0966 20.2055 46.2654 20.2568 46.4619C20.3082 46.6585 20.2803 46.8672 20.179 47.0435C20.0778 47.2199 19.9113 47.3498 19.7151 47.4055C19.5189 47.4613 19.3086 47.4384 19.1291 47.3419L17.5633 46.4521V48.2223C17.5633 48.4285 17.481 48.6264 17.3345 48.7722C17.1879 48.9181 16.9892 49 16.782 49C16.5747 49 16.376 48.9181 16.2295 48.7722C16.0829 48.6264 16.0006 48.4285 16.0006 48.2223V46.449L14.4348 47.3419C14.2553 47.4384 14.045 47.4613 13.8488 47.4055C13.6526 47.3498 13.4861 47.2199 13.3849 47.0435C13.2837 46.8672 13.2557 46.6585 13.3071 46.4619C13.3584 46.2654 13.485 46.0966 13.6597 45.9917L15.2068 45.1113L13.6597 44.2309C13.485 44.126 13.3584 43.9573 13.3071 43.7607C13.2557 43.5642 13.2837 43.3555 13.3849 43.1791C13.4861 43.0028 13.6526 42.8729 13.8488 42.8171C14.045 42.7614 14.2553 42.7842 14.4348 42.8808L16.0006 43.7705V42.0004C16.0006 41.7941 16.0829 41.5963 16.2295 41.4505C16.376 41.3046 16.5747 41.2227 16.782 41.2227ZM33.9716 41.2227C34.1789 41.2227 34.3776 41.3046 34.5241 41.4505C34.6707 41.5963 34.753 41.7941 34.753 42.0004V43.7736L36.3157 42.8808C36.4047 42.8299 36.503 42.797 36.6048 42.784C36.7067 42.7709 36.8101 42.7779 36.9092 42.8046C37.0083 42.8314 37.1012 42.8773 37.1825 42.9397C37.2638 43.0021 37.3319 43.0799 37.383 43.1686C37.4341 43.2572 37.4671 43.355 37.4803 43.4564C37.4934 43.5577 37.4863 43.6607 37.4595 43.7593C37.4326 43.858 37.3865 43.9504 37.3238 44.0313C37.2611 44.1123 37.183 44.1801 37.0939 44.2309L35.5468 45.1113L37.0939 45.9917C37.2686 46.0966 37.3951 46.2654 37.4465 46.4619C37.4978 46.6585 37.4699 46.8672 37.3687 47.0435C37.2675 47.2199 37.101 47.3498 36.9048 47.4055C36.7086 47.4613 36.4983 47.4384 36.3188 47.3419L34.753 46.4521V48.2223C34.753 48.4285 34.6707 48.6264 34.5241 48.7722C34.3776 48.9181 34.1789 49 33.9716 49C33.7644 49 33.5657 48.9181 33.4191 48.7722C33.2726 48.6264 33.1903 48.4285 33.1903 48.2223V46.449L31.6245 47.3419C31.445 47.4384 31.2347 47.4613 31.0385 47.4055C30.8423 47.3498 30.6758 47.2199 30.5746 47.0435C30.4733 46.8672 30.4454 46.6585 30.4968 46.4619C30.5481 46.2654 30.6747 46.0966 30.8494 45.9917L32.3964 45.1113L30.8494 44.2309C30.6747 44.126 30.5481 43.9573 30.4968 43.7607C30.4454 43.5642 30.4733 43.3555 30.5746 43.1791C30.6758 43.0028 30.8423 42.8729 31.0385 42.8171C31.2347 42.7614 31.445 42.7842 31.6245 42.8808L33.1903 43.7705V42.0004C33.1903 41.7941 33.2726 41.5963 33.4191 41.4505C33.5657 41.3046 33.7644 41.2227 33.9716 41.2227ZM25.3768 35.0008C25.584 35.0008 25.7828 35.0827 25.9293 35.2286C26.0758 35.3744 26.1581 35.5723 26.1581 35.7785V37.5518L27.7208 36.6589C27.9007 36.5562 28.1142 36.5288 28.3144 36.5828C28.5145 36.6367 28.685 36.7677 28.7882 36.9467C28.8914 37.1257 28.9189 37.3382 28.8647 37.5375C28.8104 37.7367 28.6789 37.9063 28.4991 38.0091L26.952 38.8895L28.4991 39.7699C28.6738 39.8748 28.8003 40.0435 28.8517 40.2401C28.903 40.4366 28.8751 40.6453 28.7739 40.8217C28.6726 40.998 28.5061 41.1279 28.3099 41.1837C28.1138 41.2394 27.9035 41.2166 27.724 41.12L26.1581 40.2303V42.0004C26.1581 42.2067 26.0758 42.4045 25.9293 42.5503C25.7828 42.6962 25.584 42.7781 25.3768 42.7781C25.1696 42.7781 24.9708 42.6962 24.8243 42.5503C24.6778 42.4045 24.5954 42.2067 24.5954 42.0004V40.2272L23.0296 41.12C22.8501 41.2166 22.6398 41.2394 22.4436 41.1837C22.2474 41.1279 22.081 40.998 21.9797 40.8217C21.8785 40.6453 21.8506 40.4366 21.9019 40.2401C21.9533 40.0435 22.0798 39.8748 22.2545 39.7699L23.8016 38.8895L22.2545 38.0091C22.0798 37.9042 21.9533 37.7354 21.9019 37.5389C21.8506 37.3423 21.8785 37.1336 21.9797 36.9573C22.081 36.7809 22.2474 36.651 22.4436 36.5953C22.6398 36.5395 22.8501 36.5624 23.0296 36.6589L24.5954 37.5487V35.7785C24.5954 35.5723 24.6778 35.3744 24.8243 35.2286C24.9708 35.0827 25.1696 35.0008 25.3768 35.0008ZM42.5665 35.0008C42.7737 35.0008 42.9724 35.0827 43.119 35.2286C43.2655 35.3744 43.3478 35.5723 43.3478 35.7785V37.5518L44.9105 36.6589C45.0904 36.5562 45.3039 36.5288 45.504 36.5828C45.7042 36.6367 45.8746 36.7677 45.9778 36.9467C46.081 37.1257 46.1085 37.3382 46.0543 37.5375C46.0001 37.7367 45.8686 37.9063 45.6887 38.0091L44.1417 38.8895L45.6887 39.7699C45.8634 39.8748 45.99 40.0435 46.0413 40.2401C46.0927 40.4366 46.0647 40.6453 45.9635 40.8217C45.8623 40.998 45.6958 41.1279 45.4996 41.1837C45.3034 41.2394 45.0931 41.2166 44.9136 41.12L43.3478 40.2303V42.0004C43.3478 42.2067 43.2655 42.4045 43.119 42.5503C42.9724 42.6962 42.7737 42.7781 42.5665 42.7781C42.3592 42.7781 42.1605 42.6962 42.014 42.5503C41.8674 42.4045 41.7851 42.2067 41.7851 42.0004V40.2272L40.2193 41.12C40.1301 41.1736 40.031 41.2088 39.928 41.2237C39.8249 41.2386 39.7198 41.2329 39.619 41.2068C39.5182 41.1807 39.4237 41.1348 39.3409 41.0718C39.2582 41.0088 39.189 40.93 39.1373 40.8399C39.0856 40.7499 39.0525 40.6505 39.04 40.5476C39.0275 40.4446 39.0358 40.3403 39.0644 40.2406C39.0929 40.1409 39.1413 40.0479 39.2065 39.967C39.2717 39.8862 39.3526 39.8192 39.4442 39.7699L40.9913 38.8895L39.4442 38.0091C39.2695 37.9042 39.1429 37.7354 39.0916 37.5389C39.0402 37.3423 39.0682 37.1336 39.1694 36.9573C39.2706 36.7809 39.4371 36.651 39.6333 36.5953C39.8295 36.5395 40.0398 36.5624 40.2193 36.6589L41.7851 37.5487V35.7785C41.7851 35.5723 41.8674 35.3744 42.014 35.2286C42.1605 35.0827 42.3592 35.0008 42.5665 35.0008ZM41.8789 12.5305C41.2298 9.27388 39.5512 6.30931 37.0883 4.07028C34.6254 1.83124 31.5075 0.435173 28.1904 0.0861975C24.8733 -0.262778 21.5311 0.453641 18.6524 2.13071C15.7737 3.80777 13.5094 6.35752 12.1908 9.40715C10.7119 9.23758 9.21391 9.37023 7.78839 9.79697C6.36286 10.2237 5.03984 10.9356 3.90033 11.889C2.76082 12.8424 1.82879 14.0172 1.16131 15.3417C0.493834 16.6661 0.104952 18.1121 0.0184745 19.5913C-0.0680025 21.0706 0.149745 22.5518 0.658386 23.9443C1.16703 25.3368 1.95586 26.6114 2.97658 27.6899C3.9973 28.7684 5.22844 29.6282 6.59462 30.2167C7.96079 30.8051 9.43325 31.1098 10.9218 31.1121H40.6131C42.9919 31.1148 45.2827 30.2175 47.0217 28.6018C48.7606 26.9862 49.8176 24.773 49.9785 22.4107C50.1394 20.0484 49.3923 17.7135 47.8883 15.8789C46.3844 14.0444 44.2362 12.8475 41.8789 12.5305Z" fill="white"/>
</svg>

<svg width="50" height="49" fill="none" xmlns="http://www.w3.org/2000/svg"><path d="M8.187 35a.783.783 0 01.781.779v1.773l1.566-.893a.785.785 0 011.05.298.775.775 0 01-.275 1.052l-1.547.88 1.547.88a.778.778 0 01-.775 1.351l-1.566-.89V42a.776.776 0 01-.78.778.783.783 0 01-.782-.778v-1.773l-1.566.893a.785.785 0 01-1.05-.298.775.775 0 01.275-1.052l1.547-.88-1.547-.88a.778.778 0 01-.275-1.053.78.78 0 011.05-.298l1.566.89v-1.77A.776.776 0 018.187 35zm8.595 6.223a.783.783 0 01.781.777v1.774l1.563-.893a.785.785 0 011.067.288.775.775 0 01-.289 1.062l-1.547.88 1.547.88a.778.778 0 01-.775 1.35l-1.566-.889v1.77a.776.776 0 01-.781.778.783.783 0 01-.781-.778V46.45l-1.566.893a.785.785 0 01-1.05-.298.774.774 0 01.275-1.052l1.547-.88-1.547-.881a.778.778 0 01.775-1.35l1.566.89V42a.775.775 0 01.781-.778zm17.19 0a.783.783 0 01.781.777v1.774l1.563-.893a.782.782 0 011.143.878.778.778 0 01-.365.472l-1.547.88 1.547.88a.778.778 0 01.275 1.053.78.78 0 01-1.05.298l-1.566-.89v1.77a.776.776 0 01-.781.778.783.783 0 01-.782-.778V46.45l-1.565.893a.785.785 0 01-1.05-.298.774.774 0 01.274-1.052l1.547-.88-1.547-.881a.778.778 0 01.776-1.35l1.565.89V42a.776.776 0 01.782-.778zM25.377 35a.783.783 0 01.781.778v1.773l1.563-.893a.785.785 0 011.067.288.775.775 0 01-.289 1.062l-1.547.88 1.547.88a.778.778 0 01.275 1.053.781.781 0 01-1.05.298l-1.566-.89V42a.776.776 0 01-.781.778.783.783 0 01-.782-.778v-1.773l-1.565.893a.785.785 0 01-1.05-.298.775.775 0 01.274-1.052l1.548-.88-1.547-.88a.778.778 0 01-.275-1.053.78.78 0 011.05-.298l1.565.89v-1.77a.776.776 0 01.782-.778zm17.19 0a.783.783 0 01.78.778v1.773l1.563-.893a.785.785 0 011.068.288.775.775 0 01-.29 1.062l-1.546.88 1.547.88a.778.778 0 01-.775 1.351l-1.566-.89V42a.776.776 0 01-.782.778.783.783 0 01-.78-.778v-1.773l-1.567.893a.783.783 0 01-1.179-.572.774.774 0 01.404-.778l1.547-.88-1.547-.88a.778.778 0 01.775-1.351l1.566.89v-1.77a.776.776 0 01.782-.778zm-.688-22.47a15.54 15.54 0 00-4.79-8.46 15.69 15.69 0 00-18.436-1.94 15.58 15.58 0 00-6.462 7.276A10.988 10.988 0 003.9 11.89a10.896 10.896 0 00-2.74 3.453A10.849 10.849 0 002.977 27.69a10.94 10.94 0 003.618 2.527c1.366.588 2.838.893 4.327.895h29.691a9.4 9.4 0 006.409-2.51 9.304 9.304 0 00.867-12.723 9.387 9.387 0 00-6.01-3.349z" fill="#fff"/></svg>
